X: 1
T: The Engine Room
T: 8x32 3C (Gary Thomas & Ron Wallace)
T: 123 set, mReels; b2b cast; cnr b2b; cnrb2b
R: Reel
C: Muriel Johnstone "Todlen Hame & other Favourite Dances"
C: arr. T. Traub, 3-18-2014
M: C|
L: 1/8
K: Bm
F|"Bm"d2 cd BFBc|"Bm"dBeB "F#"fBeB|"Bm"d2 cd BFBd|"A"cAce aAce|"Bm"d2 cd BFBc|
"Bm"dBeB fBde|"D"f2 df "A"eAce|"D"f^gaf "A"eF^Ac|| "Bm"dcB^A B2 AB-|"Bm"BFBd "F#"cB=Ac|
"Bm"dcB^A B2 dc-|"A"cAce aece|"Bm"dcB^A B2 AB-|"Bm"BFBd "F#"cB=Ac|"D"df-fd "A"eAce|"D"f^gaf "A"eF^Ac |]
